material/.icons/material/microsoft-word.svg

<svg xmlns="http://www.w3.org/2000/svg" viewBox="0 0 24 24"><path d="M21.17 3.25q.33 0 .59.25.24.24.24.58v15.84q0 .34-.24.58-.26.25-.59.25H7.83q-.33 0-.59-.25-.24-.24-.24-.58V17H2.83q-.33 0-.59-.24Q2 16.5 2 16.17V7.83q0-.33.24-.59Q2.5 7 2.83 7H7V4.08q0-.34.24-.58.26-.25.59-.25m-.8 8.09l1.2 3.94H9.6l1.31-6.56H9.53l-.78 3.88-1.11-3.75H6.5l-1.19 3.77-.78-3.9H3.09l1.31 6.56h1.37m14.98 4.22V17H8.25v2.5m12.5-3.75v-3.12H12v3.12m8.75-4.37V8.25H12v3.13M20.75 7V4.5H8.25V7z"/></svg>

<?xml version="1.0" encoding="UTF-8"?><!DOCTYPE svg PUBLIC "-//W3C//DTD SVG 1.1//EN" "http://www.w3.org/Graphics/SVG/1.1/DTD/svg11.dtd"><svg xmlns="http://www.w3.org/2000/svg" xmlns:xlink="http://www.w3.org/1999/xlink" version="1.1" id="mdi-microsoft-word" width="24" height="24" viewBox="0 0 24 24"><path d="M21.17 3.25Q21.5 3.25 21.76 3.5 22 3.74 22 4.08V19.92Q22 20.26 21.76 20.5 21.5 20.75 21.17 20.75H7.83Q7.5 20.75 7.24 20.5 7 20.26 7 19.92V17H2.83Q2.5 17 2.24 16.76 2 16.5 2 16.17V7.83Q2 7.5 2.24 7.24 2.5 7 2.83 7H7V4.08Q7 3.74 7.24 3.5 7.5 3.25 7.83 3.25M7.03 11.34L8.23 15.28H9.6L10.91 8.72H9.53L8.75 12.6L7.64 8.85H6.5L5.31 12.62L4.53 8.72H3.09L4.4 15.28H5.77M20.75 19.5V17H8.25V19.5M20.75 15.75V12.63H12V15.75M20.75 11.38V8.25H12V11.38M20.75 7V4.5H8.25V7Z" /></svg>
